img/advantages/eat.svg

<svg width="25" height="31" viewBox="0 0 25 31" fill="none" xmlns="http://www.w3.org/2000/svg">
<path fill-rule="evenodd" clip-rule="evenodd" d="M18.6173 0.0866477C18.991 -0.0681332 19.4211 0.0174225 19.7071 0.30342C20.6156 1.21191 21.8038 3.18115 22.7659 6.22132C23.7373 9.29089 24.5 13.5186 24.5 19.0105C24.5 19.5628 24.0523 20.0105 23.5 20.0105H20V29.0105C20 29.5628 19.5523 30.0105 19 30.0105C18.4477 30.0105 18 29.5628 18 29.0105V1.01053C18 0.606065 18.2436 0.241429 18.6173 0.0866477ZM20 18.0105H22.4912C22.4053 13.1941 21.7051 9.49804 20.8591 6.82474C20.5807 5.94507 20.2885 5.182 20 4.52945V18.0105Z" fill="white"/>
<path fill-rule="evenodd" clip-rule="evenodd" d="M6 0.010498C6.55228 0.010498 7 0.458213 7 1.0105V29.0105C7 29.5628 6.55228 30.0105 6 30.0105C5.44772 30.0105 5 29.5628 5 29.0105V1.0105C5 0.458213 5.44772 0.010498 6 0.010498Z" fill="white"/>
<path fill-rule="evenodd" clip-rule="evenodd" d="M1.5 0.010498C2.05228 0.010498 2.5 0.458213 2.5 1.0105V6.5105C2.5 7.06736 2.69203 7.82568 3.20088 8.42706C3.68001 8.99331 4.51446 9.5105 5.99993 9.5105C6.55221 9.5105 6.99993 9.95821 6.99993 10.5105C6.99993 11.0628 6.55221 11.5105 5.99993 11.5105C3.98547 11.5105 2.56995 10.7777 1.6741 9.71894C0.807973 8.69532 0.5 7.45364 0.5 6.5105V1.0105C0.5 0.458213 0.947715 0.010498 1.5 0.010498Z" fill="white"/>
<path fill-rule="evenodd" clip-rule="evenodd" d="M10.5 0.010498C9.94771 0.010498 9.5 0.458213 9.5 1.0105V6.5105C9.5 7.06736 9.30797 7.82568 8.79912 8.42706C8.31999 8.99331 7.4854 9.5105 5.99993 9.5105C5.44765 9.5105 5.00007 9.95821 5.00007 10.5105C5.00007 11.0628 5.44765 11.5105 5.99993 11.5105C8.01439 11.5105 9.43005 10.7777 10.3259 9.71894C11.192 8.69532 11.5 7.45364 11.5 6.5105V1.0105C11.5 0.458213 11.0523 0.010498 10.5 0.010498Z" fill="white"/>
</svg>

<svg width="25" height="31" fill="none" xmlns="http://www.w3.org/2000/svg"><path fill-rule="evenodd" clip-rule="evenodd" d="M18.617.087a1 1 0 0 1 1.09.216c.909.909 2.097 2.878 3.059 5.918.971 3.07 1.734 7.298 1.734 12.79a1 1 0 0 1-1 1H20v9a1 1 0 1 1-2 0v-28a1 1 0 0 1 .617-.924ZM20 18.01h2.491c-.086-4.817-.786-8.513-1.632-11.186-.278-.88-.57-1.643-.859-2.296V18.01ZM6 .01a1 1 0 0 1 1 1v28a1 1 0 1 1-2 0v-28a1 1 0 0 1 1-1Z" fill="#fff"/><path fill-rule="evenodd" clip-rule="evenodd" d="M1.5.01a1 1 0 0 1 1 1v5.5c0 .557.192 1.316.7 1.917.48.566 1.314 1.084 2.8 1.084a1 1 0 1 1 0 2c-2.015 0-3.43-.733-4.326-1.792A5.068 5.068 0 0 1 .5 6.51v-5.5a1 1 0 0 1 1-1Z" fill="#fff"/><path fill-rule="evenodd" clip-rule="evenodd" d="M10.5.01a1 1 0 0 0-1 1v5.5a3.07 3.07 0 0 1-.7 1.917c-.48.566-1.315 1.084-2.8 1.084a1 1 0 0 0 0 2c2.014 0 3.43-.733 4.326-1.792A5.068 5.068 0 0 0 11.5 6.51v-5.5a1 1 0 0 0-1-1Z" fill="#fff"/></svg>
